tools/download-figma-icons/icons/action/plus.svg

<svg width="24" height="24" viewBox="0 0 24 24" fill="none" xmlns="http://www.w3.org/2000/svg">
<path fill-rule="evenodd" clip-rule="evenodd" d="M19.125 10.875H13.125V4.875C13.125 4.254 12.6217 3.75 12 3.75C11.3783 3.75 10.875 4.254 10.875 4.875V10.875H4.875C4.25325 10.875 3.75 11.379 3.75 12C3.75 12.621 4.25325 13.125 4.875 13.125H10.875V19.125C10.875 19.746 11.3783 20.25 12 20.25C12.6217 20.25 13.125 19.746 13.125 19.125V13.125H19.125C19.7467 13.125 20.25 12.621 20.25 12C20.25 11.379 19.7467 10.875 19.125 10.875Z" fill="black"/>
</svg>

<svg xmlns="http://www.w3.org/2000/svg" width="24" height="24" fill="none" viewBox="0 0 24 24"><path fill="currentColor" fill-rule="evenodd" d="M19.125 10.875h-6v-6a1.125 1.125 0 1 0-2.25 0v6h-6a1.125 1.125 0 1 0 0 2.25h6v6a1.125 1.125 0 1 0 2.25 0v-6h6a1.125 1.125 0 1 0 0-2.25" clip-rule="evenodd"/></svg>
